ui/StatusQ/src/assets/img/icons/share-android.svg

<svg fill="none" height="24" viewBox="0 0 24 24" width="24" xmlns="http://www.w3.org/2000/svg"><path clip-rule="evenodd" d="m9.25363 13.0377c-.21-.1049-.31484-.3415-.28405-.5742.02007-.1517.03042-.3064.03042-.4635 0-.1575-.0104-.3126-.03056-.4646-.03091-.233.07417-.4699.28457-.5748l6.17129-3.07486c.2095-.10434.4607-.0466.628.11697.631.617 1.4944.99729 2.4467.99729 1.933 0 3.5-1.567 3.5-3.5s-1.567-3.5-3.5-3.5-3.5 1.567-3.5 3.5c0 .15999.0107.31747.0315.47176.0315.2334-.0736.47099-.2844.57602l-6.16639 3.07245c-.20981.10454-.46153.04637-.6288-.11785-.63147-.61999-1.49704-1.00238-2.45191-1.00238-1.933 0-3.5 1.567-3.5 3.5s1.567 3.5 3.5 3.5c.95527 0 1.82116-.3827 2.4527-1.0031.16744-.1645.41957-.2227.62953-.1178l6.16457 3.0803c.2101.105.3149.3419.2839.5747-.0202.1524-.0307.3079-.0307.4659 0 1.933 1.567 3.5 3.5 3.5s3.5-1.567 3.5-3.5-1.567-3.5-3.5-3.5c-.9544 0-1.8196.382-2.451 1.0014-.1674.1643-.4194.2224-.6292.1175zm-3.75363.9623c1.10457 0 2-.8954 2-2s-.89543-2-2-2-2 .8954-2 2 .89543 2 2 2zm13-6.5c1.1046 0 2-.89543 2-2s-.8954-2-2-2-2 .89543-2 2 .8954 2 2 2zm2 11c0 1.1046-.8954 2-2 2s-2-.8954-2-2 .8954-2 2-2 2 .8954 2 2z" fill="#000" fill-rule="evenodd"/></svg>

<svg width="24" height="24" viewBox="0 0 24 24" fill="none" xmlns="http://www.w3.org/2000/svg">
<path fill-rule="evenodd" clip-rule="evenodd" d="M9.25363 13.0377C9.04363 12.9328 8.93879 12.6962 8.96958 12.4635C8.98965 12.3118 9 12.1571 9 12C9 11.8425 8.9896 11.6874 8.96944 11.5354C8.93853 11.3024 9.04361 11.0655 9.25401 10.9606L15.4253 7.88574C15.6348 7.7814 15.886 7.83914 16.0533 8.00271C16.6843 8.61971 17.5477 9 18.5 9C20.433 9 22 7.433 22 5.5C22 3.567 20.433 2 18.5 2C16.567 2 15 3.567 15 5.5C15 5.65999 15.0107 5.81747 15.0315 5.97176C15.063 6.20516 14.9579 6.44275 14.7471 6.54778L8.58071 9.62023C8.3709 9.72477 8.11918 9.6666 7.95191 9.50238C7.32044 8.88239 6.45487 8.5 5.5 8.5C3.567 8.5 2 10.067 2 12C2 13.933 3.567 15.5 5.5 15.5C6.45527 15.5 7.32116 15.1173 7.9527 14.4969C8.12014 14.3324 8.37227 14.2742 8.58223 14.3791L14.7468 17.4594C14.9569 17.5644 15.0617 17.8013 15.0307 18.0341C15.0105 18.1865 15 18.342 15 18.5C15 20.433 16.567 22 18.5 22C20.433 22 22 20.433 22 18.5C22 16.567 20.433 15 18.5 15C17.5456 15 16.6804 15.382 16.049 16.0014C15.8816 16.1657 15.6296 16.2238 15.4198 16.1189L9.25363 13.0377ZM5.5 14C6.60457 14 7.5 13.1046 7.5 12C7.5 10.8954 6.60457 10 5.5 10C4.39543 10 3.5 10.8954 3.5 12C3.5 13.1046 4.39543 14 5.5 14ZM18.5 7.5C19.6046 7.5 20.5 6.60457 20.5 5.5C20.5 4.39543 19.6046 3.5 18.5 3.5C17.3954 3.5 16.5 4.39543 16.5 5.5C16.5 6.60457 17.3954 7.5 18.5 7.5ZM20.5 18.5C20.5 19.6046 19.6046 20.5 18.5 20.5C17.3954 20.5 16.5 19.6046 16.5 18.5C16.5 17.3954 17.3954 16.5 18.5 16.5C19.6046 16.5 20.5 17.3954 20.5 18.5Z" fill="black"/>
</svg>
